dist/img-full/app-store.svg

<svg width="132" height="45" viewBox="0 0 132 45" fill="none" xmlns="http://www.w3.org/2000/svg">
<g clip-path="url(#clip0_543_3489)">
<path d="M117.7 4H-3.7C-6.62711 4 -9 6.37289 -9 9.3V43.6C-9 46.5271 -6.62711 48.9 -3.7 48.9H117.7C120.627 48.9 123 46.5271 123 43.6V9.3C123 6.37289 120.627 4 117.7 4Z" fill="white"/>
<path d="M45.8 26.7L42.4 36.5H44L45 33.5H48.3L49.3 36.5H51.1L47.7 26.7H45.9H45.8ZM46.6 28.3C46.6 28.7 46.9 29.3 47 29.7L48 32.3H45.3L46.3 29.7C46.3 29.2 46.5 28.7 46.6 28.3ZM55.6 29.3C54.6 29.3 53.6 29.6 53 30.3V29.3H51.6V39.2H53.2V35.7C53.8 36.3 54.5 36.7 55.2 36.7C56.2 36.7 57.2 36.3 57.7 35.7C58.4 34.9 58.7 33.9 58.7 32.7C58.7 31.9 58.4 31 57.7 30.2C57.3 29.6 56.4 29.2 55.7 29.2H55.5L55.6 29.3ZM55.1 30.3C56.6 30.3 57.1 31.7 57.1 32.9C57.1 34.3 56.4 35.3 55.1 35.3C54.3 35.3 53.6 34.7 53.3 33.9V32.4V31.9C53.5 30.9 54.3 30.3 55.3 30.3H55.1ZM63.5 29.3C62.5 29.3 61.7 29.6 61.1 30.3V29.3H59.7V39.2H61.3V35.7C61.9 36.3 62.6 36.7 63.3 36.7C64.3 36.7 65.3 36.3 65.8 35.7C66.5 34.9 66.8 33.9 66.8 32.7C66.8 31.9 66.5 31 65.8 30.2C65.3 29.6 64.5 29.2 63.6 29.2L63.5 29.3ZM63.2 30.3C64.6 30.3 65.2 31.7 65.2 32.9C65.2 34.4 64.5 35.3 63.2 35.3C62.4 35.3 61.6 34.7 61.4 33.9V32.4V31.9C61.6 30.9 62.4 30.4 63.2 30.3ZM73.6 30.8C72.2 30.3 71.6 29.8 71.6 29.1C71.6 28.5 72.3 27.9 73.6 27.9C74.1 27.9 74.6 27.9 75.3 28.3H75.5L76 27.3C75.2 26.8 74.4 26.6 73.7 26.7C71.7 26.7 70.3 27.7 70.3 29.4C70.3 30.6 71.3 31.4 73 32.2C74.3 32.8 74.8 33.2 74.8 34.2C74.8 34.9 74 35.6 72.8 35.6C72.1 35.6 71.3 35.4 70.6 35L70.1 36.2C71.1 36.6 71.9 36.9 72.8 36.8C75.4 36.8 76.4 35.3 76.4 34C76.4 32.7 75.7 31.7 73.9 31L73.6 30.8ZM79 27.8L77.5 28.2V29.4H76.5V30.4H77.5V34.2C77.5 34.8 77.5 35.5 78.1 36.2C78.4 36.5 78.9 36.7 79.5 36.6H80.7V35.3H79.7C79.1 35.3 78.7 35 78.7 34.3V30.6H80.7V29.4H78.7V27.7L79 27.8ZM84.7 29.2C82.7 29.2 81.1 30.7 81 32.6V33C81 35 82.4 36.5 84.3 36.6H84.7C86.7 36.6 88.3 35.1 88.4 33.2V32.8C88.4 31.8 88.1 30.8 87.4 30.2C86.8 29.5 85.9 29.2 84.9 29.2H84.7ZM84.7 30.4C86 30.4 86.7 31.7 86.7 32.9C86.7 34.2 85.7 35.3 84.7 35.3C83.4 35.3 82.7 34.3 82.7 32.8C82.7 31.5 83.3 30.2 84.7 30.2V30.4ZM93 29.4L92.5 29.2C91.7 29.2 90.9 29.7 90.5 30.4V29.4H89V36.6H90.6V32.6V32.1C90.8 31.4 91.4 30.8 92.3 30.8H92.7V29.4H93ZM96.5 29.2C94.5 29.2 93 30.8 93 33C93 34 93.3 35 94 35.6C94.7 36.3 95.6 36.6 96.6 36.6C97.6 36.6 98.3 36.6 99.1 36.1L98.8 35.1H98.6C98 35.4 97.4 35.5 96.6 35.5C96.1 35.5 95.6 35.5 95.1 35C94.6 34.5 94.4 34 94.4 33.3H99.4V32.6C99.4 31 98.6 29.2 96.4 29.2H96.5ZM96.5 30.2C96.8 30.2 97.2 30.5 97.5 30.8C97.9 31.1 98.1 31.6 98.1 32.1H94.5C94.5 31.1 95.3 30.5 96.3 30.4L96.5 30.2ZM32.1 31.2C31.5 32.4 30.9 33.5 30.1 34.5C29.1 36.3 27.3 38.5 25.1 38.5C23.4 38.5 22.9 37.3 20.4 37.3C17.9 37.3 17.4 38.5 15.4 38.5C13.4 38.5 11.8 36.5 10.7 34.8C7.29998 29.8 6.99998 24.3 8.99998 21.2C10.2 19.2 12.4 17.9 14.8 17.8C17 17.8 18.4 18.8 20.2 18.8C22 18.8 23.2 17.8 25.6 17.8C27.6 17.8 29.6 18.8 31 20.5C29 21.5 27.6 23.8 27.8 26.2C28 28.6 29.6 30.6 31.8 31.2H32.1ZM23.6 16C24.6 14.7 25.2 13 25 11.5C23.4 11.7 22 12.5 20.8 13.7C19.8 14.9 19.2 16.4 19.4 18C21.1 18 22.7 17.2 23.7 16H23.6Z" fill="black"/>
<path d="M42.5225 23.1325V20.9204H42.9303C43.0704 20.7927 43.2022 20.6125 43.3258 20.3797C43.4514 20.1449 43.5575 19.8319 43.644 19.4405C43.7325 19.0472 43.7912 18.5477 43.8201 17.9421L43.956 15.2728H47.7128V20.9204H48.442V23.1201H47.7128V21.6001H43.2516V23.1325H42.5225ZM43.8448 20.9204H46.9837V15.9525H44.6481L44.5492 17.9421C44.5245 18.4035 44.4812 18.8216 44.4194 19.1965C44.3576 19.5693 44.2784 19.8998 44.1815 20.1882C44.0847 20.4745 43.9725 20.7186 43.8448 20.9204ZM51.4287 21.699C51.0003 21.699 50.6244 21.597 50.3011 21.3931C49.9797 21.1892 49.7285 20.9039 49.5472 20.5373C49.368 20.1707 49.2784 19.7423 49.2784 19.2521C49.2784 18.7578 49.368 18.3263 49.5472 17.9576C49.7285 17.5889 49.9797 17.3026 50.3011 17.0987C50.6244 16.8948 51.0003 16.7929 51.4287 16.7929C51.8571 16.7929 52.232 16.8948 52.5533 17.0987C52.8767 17.3026 53.1279 17.5889 53.3071 17.9576C53.4884 18.3263 53.579 18.7578 53.579 19.2521C53.579 19.7423 53.4884 20.1707 53.3071 20.5373C53.1279 20.9039 52.8767 21.1892 52.5533 21.3931C52.232 21.597 51.8571 21.699 51.4287 21.699ZM51.4287 21.044C51.7541 21.044 52.0219 20.9606 52.232 20.7937C52.4421 20.6269 52.5976 20.4076 52.6985 20.1357C52.7994 19.8638 52.8499 19.5693 52.8499 19.2521C52.8499 18.9349 52.7994 18.6393 52.6985 18.3654C52.5976 18.0915 52.4421 17.8701 52.232 17.7012C52.0219 17.5323 51.7541 17.4478 51.4287 17.4478C51.1033 17.4478 50.8355 17.5323 50.6254 17.7012C50.4154 17.8701 50.2599 18.0915 50.1589 18.3654C50.058 18.6393 50.0076 18.9349 50.0076 19.2521C50.0076 19.5693 50.058 19.8638 50.1589 20.1357C50.2599 20.4076 50.4154 20.6269 50.6254 20.7937C50.8355 20.9606 51.1033 21.044 51.4287 21.044ZM56.6198 21.699C56.1749 21.699 55.7918 21.5939 55.4705 21.3838C55.1492 21.1737 54.9021 20.8844 54.7291 20.5157C54.5561 20.147 54.4695 19.7258 54.4695 19.2521C54.4695 18.7701 54.5581 18.3448 54.7352 17.9761C54.9144 17.6054 55.1636 17.316 55.4829 17.108C55.8042 16.8979 56.1791 16.7929 56.6075 16.7929C56.9411 16.7929 57.2418 16.8546 57.5096 16.9782C57.7774 17.1018 57.9967 17.2748 58.1677 17.4973C58.3386 17.7197 58.4447 17.9792 58.4859 18.2758H57.7568C57.7011 18.0595 57.5776 17.868 57.386 17.7012C57.1965 17.5323 56.9411 17.4478 56.6198 17.4478C56.3356 17.4478 56.0864 17.522 55.8722 17.6703C55.66 17.8165 55.4942 18.0235 55.3748 18.2913C55.2574 18.557 55.1987 18.869 55.1987 19.2274C55.1987 19.594 55.2563 19.9132 55.3717 20.1851C55.4891 20.457 55.6538 20.6681 55.866 20.8185C56.0802 20.9688 56.3315 21.044 56.6198 21.044C56.8093 21.044 56.9813 21.011 57.1358 20.9451C57.2902 20.8792 57.421 20.7845 57.5281 20.6609C57.6352 20.5373 57.7114 20.389 57.7568 20.216H58.4859C58.4447 20.4961 58.3427 20.7484 58.18 20.9729C58.0194 21.1954 57.8062 21.3725 57.5405 21.5043C57.2769 21.6341 56.97 21.699 56.6198 21.699ZM59.1779 17.5343V16.8546H63.0336V17.5343H61.4765V21.6001H60.7474V17.5343H59.1779ZM64.5668 23.3796C64.4432 23.3796 64.333 23.3693 64.2362 23.3487C64.1394 23.3302 64.0724 23.3117 64.0354 23.2931L64.2207 22.6505C64.3979 22.6958 64.5544 22.7123 64.6903 22.7C64.8263 22.6876 64.9468 22.6268 65.0518 22.5177C65.1589 22.4106 65.2568 22.2365 65.3453 21.9956L65.4813 21.6248L63.7264 16.8546H64.5173L65.8273 20.6362H65.8767L67.1867 16.8546H67.9776L65.9632 22.2921C65.8726 22.5372 65.7603 22.7401 65.6265 22.9008C65.4926 23.0635 65.3371 23.184 65.1599 23.2622C64.9849 23.3405 64.7871 23.3796 64.5668 23.3796ZM68.9399 21.6001V16.8546H72.672V21.6001H71.9429V17.5343H69.6691V21.6001H68.9399ZM77.1796 18.8937V19.5734H74.5597V18.8937H77.1796ZM74.7327 16.8546V21.6001H74.0036V16.8546H74.7327ZM77.7357 16.8546V21.6001H77.0066V16.8546H77.7357ZM80.9951 21.699C80.5667 21.699 80.1908 21.597 79.8675 21.3931C79.5461 21.1892 79.2949 20.9039 79.1136 20.5373C78.9344 20.1707 78.8448 19.7423 78.8448 19.2521C78.8448 18.7578 78.9344 18.3263 79.1136 17.9576C79.2949 17.5889 79.5461 17.3026 79.8675 17.0987C80.1908 16.8948 80.5667 16.7929 80.9951 16.7929C81.4235 16.7929 81.7984 16.8948 82.1197 17.0987C82.4431 17.3026 82.6943 17.5889 82.8735 17.9576C83.0548 18.3263 83.1454 18.7578 83.1454 19.2521C83.1454 19.7423 83.0548 20.1707 82.8735 20.5373C82.6943 20.9039 82.4431 21.1892 82.1197 21.3931C81.7984 21.597 81.4235 21.699 80.9951 21.699ZM80.9951 21.044C81.3205 21.044 81.5883 20.9606 81.7984 20.7937C82.0085 20.6269 82.164 20.4076 82.2649 20.1357C82.3658 19.8638 82.4163 19.5693 82.4163 19.2521C82.4163 18.9349 82.3658 18.6393 82.2649 18.3654C82.164 18.0915 82.0085 17.8701 81.7984 17.7012C81.5883 17.5323 81.3205 17.4478 80.9951 17.4478C80.6697 17.4478 80.4019 17.5323 80.1919 17.7012C79.9818 17.8701 79.8263 18.0915 79.7253 18.3654C79.6244 18.6393 79.574 18.9349 79.574 19.2521C79.574 19.5693 79.6244 19.8638 79.7253 20.1357C79.8263 20.4076 79.9818 20.6269 80.1919 20.7937C80.4019 20.9606 80.6697 21.044 80.9951 21.044ZM86.7053 21.6001V16.8546H88.6455C89.1563 16.8546 89.562 16.97 89.8627 17.2007C90.1634 17.4313 90.3138 17.7362 90.3138 18.1152C90.3138 18.4035 90.2283 18.627 90.0574 18.7856C89.8864 18.9421 89.6671 19.0482 89.3993 19.1038C89.5744 19.1285 89.7443 19.1903 89.9091 19.2892C90.0759 19.388 90.2139 19.524 90.3231 19.697C90.4322 19.8679 90.4868 20.078 90.4868 20.3272C90.4868 20.5703 90.425 20.7876 90.3014 20.9791C90.1779 21.1707 90.0007 21.322 89.77 21.4333C89.5394 21.5445 89.2634 21.6001 88.9421 21.6001H86.7053ZM87.3973 20.9328H88.9421C89.1933 20.9328 89.39 20.873 89.5321 20.7536C89.6743 20.6341 89.7453 20.4714 89.7453 20.2654C89.7453 20.0203 89.6743 19.8278 89.5321 19.6877C89.39 19.5456 89.1933 19.4745 88.9421 19.4745H87.3973V20.9328ZM87.3973 18.8443H88.6455C88.8411 18.8443 89.009 18.8175 89.1491 18.7639C89.2891 18.7083 89.3962 18.6301 89.4704 18.5291C89.5466 18.4262 89.5847 18.3046 89.5847 18.1646C89.5847 17.9648 89.5013 17.8083 89.3344 17.695C89.1676 17.5796 88.9379 17.522 88.6455 17.522H87.3973V18.8443Z" fill="black"/>
</g>
<defs>
<clipPath id="clip0_543_3489">
<rect width="132" height="45" fill="white"/>
</clipPath>
</defs>
</svg>

<svg width="132" height="45" fill="none" xmlns="http://www.w3.org/2000/svg"><g clip-path="url(#clip0_543_3489)"><path d="M117.7 4H-3.7A5.3 5.3 0 00-9 9.3v34.3a5.3 5.3 0 005.3 5.3h121.4a5.3 5.3 0 005.3-5.3V9.3a5.3 5.3 0 00-5.3-5.3z" fill="#fff"/><path d="M45.8 26.7l-3.4 9.8H44l1-3h3.3l1 3h1.8l-3.4-9.8h-1.9zm.8 1.6c0 .4.3 1 .4 1.4l1 2.6h-2.7l1-2.6c0-.5.2-1 .3-1.4zm9 1c-1 0-2 .3-2.6 1v-1h-1.4v9.9h1.6v-3.5c.6.6 1.3 1 2 1 1 0 2-.4 2.5-1 .7-.8 1-1.8 1-3 0-.8-.3-1.7-1-2.5-.4-.6-1.3-1-2-1h-.2l.1.1zm-.5 1c1.5 0 2 1.4 2 2.6 0 1.4-.7 2.4-2 2.4-.8 0-1.5-.6-1.8-1.4v-2c.2-1 1-1.6 2-1.6h-.2zm8.4-1c-1 0-1.8.3-2.4 1v-1h-1.4v9.9h1.6v-3.5c.6.6 1.3 1 2 1 1 0 2-.4 2.5-1 .7-.8 1-1.8 1-3 0-.8-.3-1.7-1-2.5-.5-.6-1.3-1-2.2-1l-.1.1zm-.3 1c1.4 0 2 1.4 2 2.6 0 1.5-.7 2.4-2 2.4-.8 0-1.6-.6-1.8-1.4v-2c.2-1 1-1.5 1.8-1.6zm10.4.5c-1.4-.5-2-1-2-1.7 0-.6.7-1.2 2-1.2.5 0 1 0 1.7.4h.2l.5-1c-.8-.5-1.6-.7-2.3-.6-2 0-3.4 1-3.4 2.7 0 1.2 1 2 2.7 2.8 1.3.6 1.8 1 1.8 2 0 .7-.8 1.4-2 1.4-.7 0-1.5-.2-2.2-.6l-.5 1.2c1 .4 1.8.7 2.7.6 2.6 0 3.6-1.5 3.6-2.8 0-1.3-.7-2.3-2.5-3l-.3-.2zm5.4-3l-1.5.4v1.2h-1v1h1v3.8c0 .6 0 1.3.6 2 .3.3.8.5 1.4.4h1.2v-1.3h-1c-.6 0-1-.3-1-1v-3.7h2v-1.2h-2v-1.7l.3.1zm5.7 1.4c-2 0-3.6 1.5-3.7 3.4v.4c0 2 1.4 3.5 3.3 3.6h.4c2 0 3.6-1.5 3.7-3.4v-.4c0-1-.3-2-1-2.6-.6-.7-1.5-1-2.5-1h-.2zm0 1.2c1.3 0 2 1.3 2 2.5 0 1.3-1 2.4-2 2.4-1.3 0-2-1-2-2.5 0-1.3.6-2.6 2-2.6v.2zm8.3-1l-.5-.2c-.8 0-1.6.5-2 1.2v-1H89v7.2h1.6v-4.5c.2-.7.8-1.3 1.7-1.3h.4v-1.4h.3zm3.5-.2c-2 0-3.5 1.6-3.5 3.8 0 1 .3 2 1 2.6.7.7 1.6 1 2.6 1s1.7 0 2.5-.5l-.3-1h-.2c-.6.3-1.2.4-2 .4-.5 0-1 0-1.5-.5s-.7-1-.7-1.7h5v-.7c0-1.6-.8-3.4-3-3.4h.1zm0 1c.3 0 .7.3 1 .6.4.3.6.8.6 1.3h-3.6c0-1 .8-1.6 1.8-1.7l.2-.2zm-64.4 1c-.6 1.2-1.2 2.3-2 3.3-1 1.8-2.8 4-5 4-1.7 0-2.2-1.2-4.7-1.2s-3 1.2-5 1.2-3.6-2-4.7-3.7C7.3 29.8 7 24.3 9 21.2c1.2-2 3.4-3.3 5.8-3.4 2.2 0 3.6 1 5.4 1 1.8 0 3-1 5.4-1 2 0 4 1 5.4 2.7-2 1-3.4 3.3-3.2 5.7.2 2.4 1.8 4.4 4 5h.3zM23.6 16c1-1.3 1.6-3 1.4-4.5-1.6.2-3 1-4.2 2.2-1 1.2-1.6 2.7-1.4 4.3 1.7 0 3.3-.8 4.3-2h-.1zm18.923 7.133V20.92h.407c.14-.127.272-.308.396-.54.125-.235.231-.548.318-.94.089-.393.147-.892.176-1.498l.136-2.67h3.757v5.648h.729v2.2h-.73V21.6h-4.46v1.532h-.73zm1.322-2.213h3.139v-4.968h-2.336l-.099 1.99c-.024.462-.068.88-.13 1.255a6.433 6.433 0 01-.237.991c-.097.287-.21.53-.337.732zm7.584.779c-.429 0-.805-.102-1.128-.306a2.078 2.078 0 01-.754-.856c-.179-.366-.269-.795-.269-1.285 0-.494.09-.926.27-1.294.18-.37.432-.655.753-.86.323-.203.7-.305 1.128-.305.428 0 .803.102 1.124.306.324.204.575.49.754.859.181.368.272.8.272 1.294 0 .49-.09.919-.272 1.285a2.05 2.05 0 01-.754.856 2.054 2.054 0 01-1.124.306zm0-.655c.325 0 .593-.083.803-.25.21-.167.366-.386.467-.658.1-.272.15-.567.15-.884 0-.317-.05-.613-.15-.887a1.494 1.494 0 00-.467-.664c-.21-.169-.478-.253-.803-.253-.326 0-.593.084-.804.253a1.5 1.5 0 00-.466.664c-.101.274-.151.57-.151.887 0 .317.05.612.15.884.102.272.257.49.467.658.21.167.478.25.804.25zm5.19.655c-.444 0-.827-.105-1.148-.315-.322-.21-.569-.5-.742-.868a2.942 2.942 0 01-.26-1.264c0-.482.09-.907.266-1.276a2.1 2.1 0 01.748-.868c.321-.21.696-.315 1.125-.315.333 0 .634.062.902.185.267.124.487.297.658.52.17.222.277.481.318.778h-.73a1.13 1.13 0 00-.37-.575c-.19-.169-.445-.253-.766-.253a1.28 1.28 0 00-.748.222 1.448 1.448 0 00-.497.621 2.3 2.3 0 00-.176.936c0 .367.057.686.173.958.117.272.282.483.494.634.214.15.465.225.754.225a1.3 1.3 0 00.516-.099 1.064 1.064 0 00.62-.729h.73a1.69 1.69 0 01-.945 1.288 2.06 2.06 0 01-.921.195zm2.559-4.165v-.68h3.856v.68h-1.557V21.6h-.73v-4.066h-1.57zm5.389 5.846a1.597 1.597 0 01-.532-.087l.186-.642c.177.045.333.061.47.049a.563.563 0 00.36-.182c.108-.107.206-.282.294-.522l.136-.371-1.755-4.77h.791l1.31 3.781h.05l1.31-3.781h.79l-2.014 5.437c-.09.245-.203.448-.337.609a1.247 1.247 0 01-.466.361 1.438 1.438 0 01-.593.118zm4.373-1.78v-4.745h3.732V21.6h-.73v-4.066H69.67V21.6h-.73zm8.24-2.706v.68h-2.62v-.68h2.62zm-2.447-2.04V21.6h-.73v-4.745h.73zm3.003 0V21.6h-.73v-4.745h.73zm3.26 4.845c-.43 0-.805-.102-1.128-.306a2.078 2.078 0 01-.754-.856c-.18-.366-.27-.795-.27-1.285 0-.494.09-.926.27-1.294.18-.37.432-.655.754-.86a2.074 2.074 0 011.127-.305c.428 0 .803.102 1.125.306.323.204.574.49.754.859.18.368.271.8.271 1.294 0 .49-.09.919-.271 1.285a2.05 2.05 0 01-.754.856 2.054 2.054 0 01-1.125.306zm0-.655c.325 0 .592-.083.802-.25.21-.167.366-.386.467-.658.1-.272.151-.567.151-.884 0-.317-.05-.613-.151-.887a1.494 1.494 0 00-.467-.664c-.21-.169-.478-.253-.803-.253-.325 0-.593.084-.803.253-.21.17-.366.39-.467.664-.1.274-.151.57-.151.887 0 .317.05.612.151.884.101.272.257.49.467.658.21.167.478.25.803.25zm5.71.556v-4.745h1.94c.51 0 .916.115 1.217.346.3.23.45.535.45.914 0 .289-.085.512-.256.67-.17.157-.39.263-.658.319.175.024.345.086.51.185.167.099.305.235.414.408.11.17.164.381.164.63 0 .243-.062.46-.186.652a1.27 1.27 0 01-.531.454 1.89 1.89 0 01-.828.167h-2.237zm.691-.667h1.545c.251 0 .448-.06.59-.18a.604.604 0 00.213-.488c0-.245-.07-.437-.213-.577-.142-.142-.339-.213-.59-.213h-1.545v1.458zm0-2.089h1.248c.196 0 .364-.027.504-.08a.712.712 0 00.321-.235.596.596 0 00.115-.364.54.54 0 00-.25-.47c-.167-.115-.397-.173-.69-.173h-1.248v1.322z" fill="#000"/></g><defs><clipPath id="clip0_543_3489"><path fill="#fff" d="M0 0h132v45H0z"/></clipPath></defs></svg>
